src/topics/icons/baker-street.svg

<svg height="256" preserveAspectRatio="xMidYMid" viewBox="0 0 256 256" width="256" xmlns="http://www.w3.org/2000/svg"><path d="m182.564 190.927c-50.831 14.115-101.586-1.981-133.014-35.373-.009.916-.86 3.114-.841 4.152.318 17.691 4.111 51.923 32.552 85.82.662.788 3.959 2.458 4.646 3.244 7.006 2.443 14.281 4.267 21.782 5.467.744-.228 3.814-.382 4.547-.622 39.284-12.87 60.852-43.277 69.84-58.792.624-1.078-.012-2.976.488-3.896" fill="#f99d59"/><path d="m222.555 41.941c-.573-.224-1.769-1.252-2.338-1.467-29.7-11.215-52.817-9.145-69.497-4.313-.232.067-.579.898-.808.966 41.529 30.288 61.09 97.165 32.652 153.8.842-.205 1.553.419 2.48.153 15.586-4.469 43.4-17.884 69.746-58.74.533-.825.639-2.715 1.171-3.562.001-.262.039-.515.039-.778 0-33.183-12.734-63.317-33.445-86.059" fill="#178dbc"/><path d="m82.563 8.453c-28.13 10.701-51.509 30.948-66.112 56.885.007.795-1.006 2.612-.99 3.395 1.028 50.621 20.84 75.867 31.461 85.909.816.771 1.925.314 2.628.912.379-47.009 45.345-109.631 100.362-118.427.081-.393.333-.661-.486-1.335-4.869-4.014-19.315-18.853-61.919-27.171-.997-.194-3.926.009-4.944-.168" fill="#e5d332"/><path d="m149.912 37.127c17.018-4.988 41.973-7.205 72.643 4.814l-.211-.242c-23.384-25.588-56.946-41.699-94.344-41.699-16.025 0-31.299 3.075-45.437 8.453 40.816 7.086 59.932 21.328 67.349 28.674" fill="#3e7947"/><path d="m85.907 248.77c-31.97-36.612-36.549-75.698-36.392-92.583 0-.215.035-.443.037-.66 0 .009-.002.018-.002.027-10.002-8.503-32.595-34.06-33.099-90.216-5.08 9.752-16.451 35.104-16.451 62.662 0 55.863 35.839 103.24 85.744 120.695z" fill="#e57428"/><path d="m255.961 128.778c-28.404 45.31-58.112 58.429-73.397 62.149-.074.146-.125.296-.198.441-.159.045.158-.044 0 0-7.831 14.42-31.23 49.598-74.677 62.869 6.594 1.096 13.402 1.763 20.311 1.763 70.693 0 128-57.307 128-128 0 .263-.038.516-.039.778" fill="#4a6f5d"/></svg>

<?xml version="1.0" encoding="UTF-8" standalone="no"?>
<svg width="256px" height="256px" viewBox="0 0 256 256" version="1.1" xmlns="http://www.w3.org/2000/svg" xmlns:xlink="http://www.w3.org/1999/xlink" preserveAspectRatio="xMidYMid">
	<g>
		<path d="M182.564,190.927 C131.733,205.042 80.978,188.946 49.55,155.554 C49.541,156.47 48.69,158.668 48.709,159.706 C49.027,177.397 52.82,211.629 81.261,245.526 C81.923,246.314 85.22,247.984 85.907,248.77 C92.913,251.213 100.188,253.037 107.689,254.237 C108.433,254.009 111.503,253.855 112.236,253.615 C151.52,240.745 173.088,210.338 182.076,194.823 C182.7,193.745 182.064,191.847 182.564,190.927" fill="#F99D59"></path>
		<path d="M222.555,41.941 C221.982,41.717 220.786,40.689 220.217,40.474 C190.517,29.259 167.4,31.329 150.72,36.161 C150.488,36.228 150.141,37.059 149.912,37.127 C191.441,67.415 211.002,134.292 182.564,190.927 C183.406,190.722 184.117,191.346 185.044,191.08 C200.63,186.611 228.444,173.196 254.79,132.34 C255.323,131.515 255.429,129.625 255.961,128.778 C255.962,128.516 256,128.263 256,128 C256,94.817 243.266,64.683 222.555,41.941" fill="#178DBC"></path>
		<path d="M82.563,8.453 C54.433,19.154 31.054,39.401 16.451,65.338 C16.458,66.133 15.445,67.95 15.461,68.733 C16.489,119.354 36.301,144.6 46.922,154.642 C47.738,155.413 48.847,154.956 49.55,155.554 C49.929,108.545 94.895,45.923 149.912,37.127 C149.993,36.734 150.245,36.466 149.426,35.792 C144.557,31.778 130.111,16.939 87.507,8.621 C86.51,8.427 83.581,8.63 82.563,8.453" fill="#E5D332"></path>
		<path d="M149.912,37.127 C166.93,32.139 191.885,29.922 222.555,41.941 L222.344,41.699 C198.96,16.111 165.398,0 128,0 C111.975,0 96.701,3.075 82.563,8.453 C123.379,15.539 142.495,29.781 149.912,37.127" fill="#3E7947"></path>
		<path d="M85.907,248.77 C53.937,212.158 49.358,173.072 49.515,156.187 C49.515,155.972 49.55,155.744 49.552,155.527 C49.552,155.536 49.55,155.545 49.55,155.554 C39.548,147.051 16.955,121.494 16.451,65.338 C11.371,75.09 0,100.442 0,128 C0,183.863 35.839,231.24 85.744,248.695 L85.907,248.77" fill="#E57428"></path>
		<path d="M255.961,128.778 C227.557,174.088 197.849,187.207 182.564,190.927 C182.49,191.073 182.439,191.223 182.366,191.368 C182.207,191.413 182.524,191.324 182.366,191.368 C174.535,205.788 151.136,240.966 107.689,254.237 C114.283,255.333 121.091,256 128,256 C198.693,256 256,198.693 256,128 C256,128.263 255.962,128.516 255.961,128.778" fill="#4A6F5D"></path>
	</g>
</svg>
